build/img/sprite/icon-maindirection-org.svg

<svg width="85" height="85" viewBox="0 0 85 85" fill="none" xmlns="http://www.w3.org/2000/svg">
<circle cx="42.5" cy="42.5" r="42" stroke="white"/>
<path d="M60.0765 43.0068C60.0768 41.9762 59.9877 40.9474 59.8109 39.932L58.3486 40.1875C59.4372 46.4263 56.8201 52.7317 51.6337 56.3657L50.4382 54.4139C50.0338 53.7594 49.9986 52.9419 50.3447 52.2548L50.6821 51.5804C50.8071 51.3286 51.0644 51.1695 51.3456 51.1706H52.3922C53.3036 51.1735 54.124 50.6183 54.4599 49.7711L55.4641 47.2594C55.5699 46.9967 55.6243 46.7155 55.6235 46.4321V44.7992C55.6246 44.4053 55.4681 44.027 55.1887 43.749L54.2979 42.8586C53.8464 42.4064 53.1561 42.2944 52.5842 42.5803L50.7578 43.4939C50.5491 43.5983 50.3034 43.5983 50.0943 43.4939L47.1257 42.0096C46.8749 41.8842 46.7169 41.6276 46.7176 41.3475V39.2961C46.7176 38.4763 46.053 37.8117 45.2333 37.8117C44.8235 37.8117 44.4912 37.4794 44.4912 37.0696V36.3274C44.4912 36.0941 44.6013 35.8741 44.788 35.7338L47.163 33.9527L46.2723 32.7652L43.8976 34.5463C43.3384 34.9681 43.0087 35.6273 43.0069 36.3274V37.0696C43.0069 38.2991 44.0038 39.2961 45.2333 39.2961V41.3475C45.2304 42.1915 45.7077 42.9637 46.464 43.3388L49.4326 44.8231C50.0599 45.1351 50.797 45.1351 51.4243 44.8231L53.251 43.9103L54.1414 44.8006V46.4335C54.1418 46.5278 54.1233 46.6212 54.0881 46.7089L53.0832 49.221C52.9716 49.5036 52.698 49.6888 52.3943 49.6877H51.3478C50.5038 49.6848 49.7316 50.1621 49.3569 50.9184L49.0191 51.5931C48.4422 52.7379 48.5009 54.1004 49.1742 55.1916L50.3839 57.1666C45.812 59.7985 40.2477 60.05 35.457 57.842L36.3677 57.234C36.4887 57.1528 36.6311 57.1089 36.7771 57.1079H38.6807C39.2718 57.1097 39.8389 56.8748 40.2557 56.4556L42.3546 54.3567C42.7735 53.9399 43.0087 53.3728 43.0069 52.7817V49.354C43.0069 48.9517 42.8978 48.5571 42.6916 48.2117L41.1062 45.5606C40.7007 44.8985 39.9806 44.4937 39.204 44.4912H37.1214C36.376 44.4904 35.6795 44.8626 35.266 45.4826L34.4459 46.7176H32.6166C31.7969 46.7176 31.1323 47.3822 31.1323 48.202V49.6196C31.1323 49.8714 31.0044 50.1063 30.7924 50.2429L28.4768 51.7363C26.816 49.1278 25.9347 46.0991 25.9372 43.0068C25.9372 42.7583 25.9445 42.5111 25.9557 42.2647H27.2465C27.5277 42.264 27.785 42.4231 27.91 42.6753L28.779 44.4169C29.0302 44.9195 29.5447 45.2359 30.1068 45.2333H30.8903C31.3566 45.234 31.7962 45.0159 32.0771 44.6437C32.3583 44.2716 32.4481 43.7892 32.3199 43.341L31.3744 40.0382H32.8391C33.345 40.0382 33.8353 39.8661 34.23 39.5501L36.6525 37.6121C37.4327 36.9859 37.7005 35.9168 37.3077 34.9968L36.0372 32.0281C35.8908 31.6868 36.0194 31.29 36.3379 31.099L38.2067 29.9778C38.884 29.5694 39.2953 28.833 39.2877 28.0419L39.2754 26.9562C41.6689 26.5069 44.1331 26.5996 46.4861 27.228L46.8662 25.797C39.4954 23.826 31.6879 26.7682 27.4513 33.1135C23.2147 39.4588 23.4897 47.7975 28.1354 53.8497C32.7812 59.9022 40.7655 62.3233 47.9903 59.8707C55.2151 57.4181 60.0754 50.6364 60.0765 43.0068V43.0068ZM37.7933 27.3074L37.802 28.0629C37.8052 28.3268 37.6679 28.5721 37.4414 28.7076L35.5719 29.8292C34.6203 30.405 34.2365 31.5929 34.6717 32.6166L35.9422 35.5853C36.0738 35.8918 35.9846 36.2488 35.7241 36.4575L33.3015 38.3952C33.17 38.4988 33.0069 38.5546 32.8391 38.5539H31.3744C30.908 38.5532 30.4684 38.7717 30.1876 39.1439C29.9064 39.5157 29.8165 39.9984 29.9448 40.4466L30.8903 43.749H30.1068L29.2374 42.011C28.8627 41.2547 28.0905 40.7775 27.2465 40.7804H26.093C26.9867 34.3713 31.5726 29.0907 37.7933 27.3074V27.3074ZM29.3288 52.9517L31.5969 51.4898C32.2336 51.0811 32.6177 50.3759 32.6166 49.6196V48.202H34.4459C34.9424 48.202 35.4059 47.9537 35.6809 47.5406L36.5039 46.306C36.6416 46.0994 36.8735 45.9755 37.1214 45.9755H39.204C39.4609 45.9758 39.6998 46.1088 39.8349 46.3274L41.4171 48.9738C41.4863 49.0887 41.5225 49.2199 41.5225 49.354V52.7817C41.5225 52.9789 41.4446 53.168 41.3051 53.3072L39.2062 55.4061C39.067 55.5456 38.8779 55.6239 38.6807 55.6235H36.7771C36.3372 55.6235 35.9067 55.754 35.5407 55.9982L33.9578 57.0553C32.1695 55.9924 30.5985 54.5998 29.3288 52.9517V52.9517Z" fill="white"/>
<path d="M21.5347 43.7291L20.0543 43.8324C20.0891 44.3347 20.1417 44.8431 20.2109 45.3424L21.6818 45.1391C21.6173 44.6731 21.5673 44.1944 21.5347 43.7291V43.7291Z" fill="white"/>
<path d="M23.7851 32.7482L22.4664 32.0669C22.2348 32.5119 22.0156 32.9776 21.8152 33.4421L23.1781 34.0306C23.3665 33.5972 23.5713 33.166 23.7851 32.7482Z" fill="white"/>
<path d="M21.9235 46.5358L20.4703 46.8409C20.5743 47.3359 20.6932 47.8316 20.8327 48.3165L22.2605 47.9135C22.1337 47.4598 22.0202 46.9982 21.9235 46.5358Z" fill="white"/>
<path d="M21.9051 38.0835L20.4505 37.7867C20.3504 38.2785 20.2649 38.7833 20.1982 39.2848L21.6691 39.4816C21.7315 39.0134 21.8108 38.5427 21.9051 38.0835Z" fill="white"/>
<path d="M25.2567 30.3229L24.0424 29.468C23.7532 29.8797 23.4734 30.308 23.2114 30.7407L24.4805 31.5104C24.7255 31.1056 24.9867 30.7066 25.2567 30.3229Z" fill="white"/>
<path d="M22.6613 35.3516L21.2618 34.8588C21.0933 35.3375 20.9404 35.8238 20.8059 36.309L22.237 36.7047C22.3609 36.2532 22.504 35.7984 22.6613 35.3516Z" fill="white"/>
<path d="M21.5296 40.8924L20.0453 40.796C20.0152 41.2805 20 41.7701 20 42.2648V42.3122L21.4843 42.2648C21.4843 41.8042 21.4995 41.3468 21.5296 40.8924Z" fill="white"/>
<path d="M22.6918 49.2642L21.2952 49.7642C21.4658 50.2408 21.6536 50.7151 21.8547 51.1743L23.2151 50.5807C23.0274 50.1509 22.8512 49.7088 22.6918 49.2642Z" fill="white"/>
<path d="M27.0422 28.1185L25.9551 27.1085C25.6115 27.4796 25.276 27.8648 24.9592 28.2551L26.1123 29.1904C26.4077 28.8251 26.7211 28.4646 27.0422 28.1185Z" fill="white"/>
<path d="M39.3704 21.6855L39.1624 20.2146C38.6652 20.2838 38.1615 20.3719 37.6658 20.4759L37.9705 21.9298C38.4329 21.8312 38.9037 21.7493 39.3704 21.6855Z" fill="white"/>
<path d="M42.1967 21.4843L42.1905 20C41.6828 20 41.1722 20.0203 40.6729 20.0558L40.7783 21.5401C41.2469 21.5028 41.7194 21.4843 42.1967 21.4843Z" fill="white"/>
<path d="M36.5931 22.2681L36.1902 20.8396C35.7071 20.9759 35.2193 21.1317 34.7432 21.3034L35.2447 22.7001C35.6893 22.5406 36.1427 22.3957 36.5931 22.2681Z" fill="white"/>
<path d="M29.1091 26.1787L28.1695 25.0299C27.7792 25.3488 27.3947 25.6858 27.0276 26.0308L28.0433 27.1129C28.3862 26.7907 28.7456 26.4762 29.1091 26.1787Z" fill="white"/>
<path d="M33.9288 23.2242L33.3349 21.8645C32.8758 22.0656 32.4155 22.2867 31.9666 22.5211L32.6536 23.8362C33.0707 23.6173 33.4998 23.414 33.9288 23.2242Z" fill="white"/>
<path d="M31.419 24.5356L30.6424 23.2701C30.2119 23.5343 29.7861 23.8163 29.3762 24.108L30.2365 25.3176C30.6196 25.0469 31.0167 24.7816 31.419 24.5356Z" fill="white"/>
<path d="M50.5582 61.3241L51.1522 62.6845C51.6146 62.4834 52.0744 62.2631 52.5212 62.0308L51.8385 60.7139C51.42 60.9306 50.9895 61.1364 50.5582 61.3241V61.3241Z" fill="white"/>
<path d="M57.4551 56.4444L58.5404 57.4583C58.8847 57.0873 59.221 56.7042 59.5391 56.3132L58.3882 55.3757C58.0907 55.741 57.7758 56.1009 57.4551 56.4444V56.4444Z" fill="white"/>
<path d="M55.3848 58.3809L56.3226 59.5311C56.7129 59.2126 57.0974 58.8766 57.4663 58.5327L56.4534 57.4478C56.1074 57.771 55.7511 58.0819 55.3848 58.3809V58.3809Z" fill="white"/>
<path d="M59.2467 54.2447L60.4589 55.1043C60.7499 54.6923 61.0311 54.2654 61.2931 53.8334L60.0255 53.0619C59.7798 53.4609 59.5185 53.8602 59.2467 54.2447V54.2447Z" fill="white"/>
<path d="M53.0714 60.0178L53.8426 61.2847C54.2716 61.0227 54.6981 60.7422 55.1109 60.4505L54.2528 59.2394C53.8708 59.5119 53.4715 59.7739 53.0714 60.0178Z" fill="white"/>
<path d="M47.8918 62.274L48.2926 63.7036C48.7771 63.5677 49.2649 63.4126 49.7407 63.2434L49.241 61.8453C48.7956 62.0062 48.3437 62.1479 47.8918 62.274Z" fill="white"/>
<path d="M62.9977 43.6831L64.4784 43.7824C64.5124 43.2794 64.5295 42.7688 64.5295 42.2648H63.0452C63.0452 42.7413 63.0292 43.2142 62.9977 43.6831V43.6831Z" fill="white"/>
<path d="M62.6154 46.4908L64.0692 46.7876C64.1711 46.2955 64.2569 45.7907 64.3254 45.2899L62.8545 45.0902C62.7907 45.5613 62.7103 46.0313 62.6154 46.4908V46.4908Z" fill="white"/>
<path d="M61.8533 49.2203L63.2513 49.7168C63.4213 49.2388 63.5757 48.7521 63.7108 48.268L62.2809 47.869C62.1544 48.3195 62.0105 48.7742 61.8533 49.2203Z" fill="white"/>
<path d="M60.7216 51.8221L62.0395 52.506C62.2718 52.0606 62.4914 51.5967 62.6926 51.1329L61.3314 50.5389C61.1437 50.9731 60.9383 51.4043 60.7216 51.8221Z" fill="white"/>
<path d="M23.8257 51.8573L22.5099 52.5444C22.7436 52.9897 22.9955 53.4351 23.2575 53.8645L24.5273 53.0905C24.2794 52.6908 24.0449 52.2759 23.8257 51.8573Z" fill="white"/>
<path d="M28.238 59.5573C28.6312 59.8769 29.0389 60.1856 29.4491 60.4752L30.3025 59.2601C29.9162 58.9872 29.539 58.7017 29.1708 58.4038L28.238 59.5573Z" fill="white"/>
<path d="M33.4191 62.703C33.88 62.9027 34.3565 63.0904 34.836 63.2604L35.331 61.8608C34.8856 61.7018 34.4403 61.5275 34.0105 61.3412L33.4191 62.703Z" fill="white"/>
<path d="M30.7189 61.3057C31.1523 61.5691 31.5984 61.8192 32.0452 62.0478L32.7272 60.7287C32.3101 60.5135 31.8944 60.2798 31.4893 60.0341L30.7189 61.3057Z" fill="white"/>
<path d="M26.0116 57.4844C26.358 57.8555 26.7204 58.2153 27.0868 58.5574L28.0993 57.471C27.7565 57.1517 27.418 56.8147 27.0944 56.4697L26.0116 57.4844Z" fill="white"/>
<path d="M25.3042 54.2751L24.0931 55.1329C24.3849 55.5442 24.6943 55.9493 25.0132 56.3414L26.1598 55.4011C25.863 55.0372 25.576 54.6589 25.3042 54.2751Z" fill="white"/>
<path d="M45.1167 62.851L45.3178 64.3212C45.8161 64.2527 46.3198 64.1668 46.8155 64.0635L46.5144 62.6104C46.0498 62.706 45.5816 62.7872 45.1167 62.851V62.851Z" fill="white"/>
<path d="M39.2599 64.3284C39.7564 64.3954 40.2648 64.4465 40.7714 64.4769L40.8703 62.9926C40.396 62.9615 39.9216 62.9133 39.4603 62.851L39.2599 64.3284Z" fill="white"/>
<path d="M42.2869 63.0452V64.5295C42.7953 64.5295 43.3059 64.5118 43.8056 64.477L43.7038 62.9927C43.2363 63.0278 42.7641 63.0452 42.2869 63.0452Z" fill="white"/>
<path d="M36.2852 63.717C36.7729 63.8525 37.2701 63.9728 37.7622 64.0739L38.059 62.62C37.5995 62.5258 37.1357 62.4135 36.6816 62.2874L36.2852 63.717Z" fill="white"/>
<path d="M48.3507 26.263L47.9238 33.5215C47.8618 34.5796 48.255 35.6139 49.0044 36.364L50.4441 37.8023L53.0645 30.9841L55.7135 33.6327V36.9087C55.7124 37.4982 55.9473 38.0643 56.3658 38.4796L57.6526 39.7675L59.2268 37.1438L59.6044 37.5207C60.1636 38.0998 60.9913 38.3317 61.77 38.1281C62.5484 37.9244 63.1561 37.3163 63.3601 36.5379C63.5638 35.7595 63.3315 34.9315 62.7528 34.3727L62.3759 33.9955L64.9999 32.4209L63.7131 31.1323C63.2967 30.713 62.73 30.4782 62.1389 30.48H58.8615L56.2172 27.8321L63.0394 25.2084L61.5964 23.768C60.8474 23.0178 59.8128 22.625 58.755 22.6881L51.4965 23.115L49.1091 20.7265C48.2278 19.8858 46.8413 19.8858 45.96 20.7265C45.0903 21.5962 45.0903 23.0059 45.96 23.8756L48.3507 26.263ZM49.8839 35.1228C49.544 34.6938 49.3737 34.1545 49.4052 33.6081L49.7545 27.6708L51.9187 29.835L49.8839 35.1228ZM57.3602 37.3663C57.2555 37.2344 57.1982 37.071 57.1978 36.9025V35.1134L58.1469 36.061L57.3602 37.3663ZM62.1382 31.9621C62.3067 31.9625 62.4701 32.0198 62.602 32.1245L61.2946 32.9134L60.3466 31.9665L62.1382 31.9621ZM58.8416 24.1695C59.3881 24.1372 59.9277 24.3079 60.3564 24.6482L55.0656 26.683L52.9014 24.5188L58.8416 24.1695ZM47.0102 21.7767C47.2998 21.4875 47.769 21.4875 48.0589 21.7767L61.7033 35.4214C61.9925 35.711 61.9925 36.1803 61.7033 36.4698C61.4098 36.7507 60.9474 36.7507 60.6539 36.4698L47.0102 22.8254C46.721 22.5355 46.721 22.0666 47.0102 21.7767Z" fill="white"/>
</svg>

<svg width="85" height="85" fill="none" xmlns="http://www.w3.org/2000/svg"><circle cx="42.5" cy="42.5" r="42" stroke="#fff"/><path d="M60.077 43.007c0-1.03-.09-2.06-.266-3.075l-1.462.255a16.327 16.327 0 01-6.715 16.179l-1.196-1.952a2.213 2.213 0 01-.093-2.16l.337-.674a.738.738 0 01.664-.41h1.046a2.217 2.217 0 002.068-1.399l1.004-2.512a2.2 2.2 0 00.16-.827V44.8a1.476 1.476 0 00-.435-1.05l-.891-.89a1.484 1.484 0 00-1.714-.279l-1.826.914a.742.742 0 01-.664 0l-2.968-1.484a.738.738 0 01-.408-.663v-2.05c0-.82-.665-1.485-1.485-1.485a.742.742 0 01-.742-.742v-.743c0-.233.11-.453.297-.593l2.375-1.781-.89-1.188-2.375 1.781a2.239 2.239 0 00-.891 1.781v.743c0 1.23.997 2.226 2.226 2.226v2.051a2.214 2.214 0 001.231 1.992l2.969 1.484a2.236 2.236 0 001.991 0l1.827-.913.89.89v1.634a.731.731 0 01-.053.275l-1.005 2.512a.738.738 0 01-.689.467h-1.046a2.213 2.213 0 00-1.991 1.23l-.338.675a3.69 3.69 0 00.155 3.599l1.21 1.975a16.27 16.27 0 01-14.927.675l.91-.608a.744.744 0 01.41-.126h1.904a2.211 2.211 0 001.575-.652l2.099-2.1c.419-.416.654-.983.652-1.574v-3.428c0-.402-.11-.797-.315-1.142l-1.586-2.651a2.24 2.24 0 00-1.902-1.07h-2.083a2.23 2.23 0 00-1.855.992l-.82 1.235h-1.83c-.82 0-1.484.664-1.484 1.484v1.418a.742.742 0 01-.34.623l-2.315 1.493a16.23 16.23 0 01-2.521-9.471h1.29a.738.738 0 01.664.41l.869 1.742c.251.502.766.819 1.328.816h.783a1.484 1.484 0 001.43-1.892l-.946-3.303h1.465c.506 0 .996-.172 1.391-.488l2.423-1.938a2.23 2.23 0 00.655-2.615l-1.27-2.969a.742.742 0 01.3-.929l1.869-1.121a2.236 2.236 0 001.08-1.936l-.012-1.086a16.296 16.296 0 017.211.272l.38-1.431a17.812 17.812 0 1013.21 17.21zm-22.284-15.7l.009.756a.74.74 0 01-.36.645l-1.87 1.121a2.236 2.236 0 00-.9 2.788l1.27 2.968a.742.742 0 01-.218.873l-2.422 1.937a.742.742 0 01-.463.159h-1.465a1.484 1.484 0 00-1.43 1.893l.946 3.302h-.783l-.87-1.738a2.213 2.213 0 00-1.99-1.23h-1.154a16.367 16.367 0 0111.7-13.474zM29.33 52.952l2.268-1.462a2.218 2.218 0 001.02-1.87v-1.418h1.829c.496 0 .96-.248 1.235-.661l.823-1.235a.742.742 0 01.617-.33h2.083a.74.74 0 01.63.351l1.583 2.647c.07.115.105.246.105.38v3.428a.742.742 0 01-.217.525l-2.099 2.1a.74.74 0 01-.525.217h-1.904c-.44 0-.87.13-1.236.374l-1.583 1.057a16.46 16.46 0 01-4.63-4.103zm-7.795-9.222l-1.48.102c.034.503.087 1.011.156 1.51l1.47-.203a21.169 21.169 0 01-.146-1.41zm2.25-10.982l-1.319-.681c-.231.445-.45.91-.65 1.375l1.362.589c.188-.434.393-.865.607-1.283zm-1.861 13.788l-1.454.305c.104.495.223.99.363 1.475l1.428-.403c-.127-.453-.24-.915-.337-1.377zm-.019-8.452l-1.454-.297c-.1.492-.186.996-.253 1.498l1.471.197c.063-.469.142-.94.236-1.398zm3.352-7.761l-1.215-.855c-.289.412-.569.84-.83 1.273l1.268.77c.245-.405.507-.804.777-1.188zm-2.596 5.029l-1.4-.493a22.41 22.41 0 00-.455 1.45l1.431.396c.124-.452.267-.907.424-1.353zm-1.131 5.54l-1.485-.096c-.03.485-.045.974-.045 1.469v.047l1.484-.047c0-.46.015-.918.046-1.373zm1.162 8.372l-1.397.5c.17.477.359.951.56 1.41l1.36-.593c-.188-.43-.364-.872-.523-1.317zm4.35-21.145l-1.087-1.01c-.343.37-.679.756-.996 1.146l1.153.935c.296-.365.61-.725.93-1.072zm12.328-6.433l-.208-1.471c-.497.069-1 .157-1.496.26l.305 1.455c.462-.099.933-.18 1.4-.244zm2.827-.202L42.19 20c-.507 0-1.018.02-1.517.056l.105 1.484c.469-.037.941-.056 1.419-.056zm-5.604.784l-.403-1.428c-.483.136-.97.292-1.447.463l.502 1.397c.444-.16.898-.304 1.348-.432zm-7.483 3.911l-.94-1.15c-.39.32-.775.657-1.142 1.002l1.015 1.082a20.83 20.83 0 011.066-.934zm4.819-2.955l-.594-1.36c-.46.202-.92.423-1.368.657l.687 1.315c.417-.219.846-.422 1.275-.612zm-2.51 1.312l-.777-1.266c-.43.264-.856.546-1.266.838l.86 1.21a21.4 21.4 0 011.183-.782zm19.139 36.788l.594 1.36c.463-.2.922-.42 1.37-.653l-.683-1.317c-.419.217-.85.422-1.28.61zm6.897-4.88l1.085 1.014c.345-.37.681-.754 1-1.145l-1.152-.937c-.297.365-.612.725-.933 1.068zm-2.07 1.936l.938 1.151c.39-.318.774-.654 1.143-.998l-1.013-1.085a21.47 21.47 0 01-1.068.933zm3.862-4.135l1.212.86c.29-.413.572-.84.834-1.272l-1.267-.771a22.46 22.46 0 01-.78 1.183zm-6.176 5.773l.772 1.267a22.79 22.79 0 001.268-.834l-.858-1.212c-.382.273-.782.535-1.182.779zm-5.179 2.256l.4 1.43c.485-.136.973-.291 1.449-.46l-.5-1.399a18.7 18.7 0 01-1.35.429zm15.106-18.591l1.48.1c.034-.504.052-1.014.052-1.518h-1.485c0 .476-.016.95-.047 1.418zm-.383 2.807l1.454.298c.102-.492.188-.997.256-1.498l-1.47-.2c-.064.471-.145.941-.24 1.4zm-.762 2.73l1.398.497c.17-.478.325-.965.46-1.449l-1.43-.399c-.127.45-.27.905-.428 1.351zm-1.131 2.602l1.317.684c.233-.445.452-.91.654-1.373l-1.362-.594c-.187.434-.393.865-.61 1.283zm-36.896.035l-1.316.687c.234.446.485.891.747 1.32l1.27-.773a19.41 19.41 0 01-.701-1.234zm4.412 7.7c.393.32.8.629 1.211.918l.853-1.215a21.762 21.762 0 01-1.131-.856l-.933 1.153zm5.182 3.146c.46.2.936.387 1.416.557l.495-1.4c-.445-.158-.89-.332-1.32-.519l-.592 1.362zm-2.701-1.397c.433.263.88.513 1.326.742l.682-1.32a20.69 20.69 0 01-1.238-.694l-.77 1.272zm-4.707-3.822c.346.371.708.731 1.075 1.073l1.012-1.086c-.343-.32-.681-.656-1.005-1.001l-1.082 1.014zm-.708-3.209l-1.21.858c.29.411.6.816.92 1.208l1.146-.94a20.874 20.874 0 01-.856-1.126zm19.813 8.576l.2 1.47a22.168 22.168 0 001.498-.257l-.3-1.454c-.465.096-.933.177-1.398.241zm-5.857 1.477c.496.067 1.005.118 1.511.149l.1-1.484c-.475-.032-.95-.08-1.41-.142l-.201 1.477zm3.027-1.283v1.484c.508 0 1.019-.017 1.519-.052l-.102-1.484c-.468.035-.94.052-1.417.052z" fill="#fff"/><path d="M36.285 63.717c.488.136.985.256 1.477.357l.297-1.454c-.46-.094-.923-.206-1.377-.333l-.397 1.43zM48.35 26.263l-.426 7.259a3.714 3.714 0 001.08 2.842l1.44 1.438 2.62-6.818 2.65 2.649v3.276c-.002.59.233 1.155.652 1.57l1.287 1.288 1.574-2.623.377.377a2.227 2.227 0 103.149-3.148l-.377-.377L65 32.42l-1.287-1.289a2.208 2.208 0 00-1.574-.652H58.86l-2.644-2.648 6.822-2.624-1.443-1.44a3.703 3.703 0 00-2.841-1.08l-7.259.427-2.387-2.388a2.281 2.281 0 00-3.149 0c-.87.87-.87 2.279 0 3.149l2.39 2.387zm1.534 8.86a2.233 2.233 0 01-.479-1.515l.35-5.937 2.164 2.164-2.035 5.288zm7.476 2.243a.749.749 0 01-.162-.463v-1.79l.949.948-.787 1.305zm4.778-5.404a.75.75 0 01.464.162l-1.307.79-.948-.948 1.791-.004zm-3.296-7.793a2.226 2.226 0 011.514.48l-5.29 2.034-2.165-2.164 5.94-.35zM47.01 21.777a.742.742 0 011.049 0L61.703 35.42c.29.29.29.76 0 1.049a.759.759 0 01-1.05 0L47.01 22.825a.742.742 0 010-1.048z" fill="#fff"/></svg>
